X: 103
T: Ma mepuo
%%abc-version 2.0
%%abcx-abcm2ps-target-version 5.9.1 (29 Sep 2008)
%%abc-creator hum2abc beta
%%abcx-conversion-date 2013/10/02 07:52:29
%%abc-edited-by Helmut Schaffrath
%%humdrum-veritas 387591282
%%humdrum-veritas-data 3528993479
%%continueall 1
%%barnumbers 0
L: 1/8
M: 2/4
K: F
cf2c [I:setbarnb 1]| 
B2A G | 
F> _E D F | 
G4 | 
G c D C | 
F Gc2 | 
F D/ C/ B, G, | 
C4 | 
F> G D C | 
F GC2 | 
z c B c | 
f2c f | 
B2A A | 
G F _E D | 
C3G | 
F G F/ G/ _E/ D/ | 
C4 |]  



